X:1
T:Title
%%score { ( 1 3 ) | ( 2 4 ) }
L:1/8
M:6/8
K:Ab
V:1 treble nm="Grand Piano"
V:3 treble 
V:2 bass 
V:4 bass 
V:1
 z3 z2[Q:1/4=78] [CE] | [Ec][Ec][Ec] [Ec][EB][EA] | B3- B2 c | ddd dcB | c3- c2 c | %5
 ecc [Ec][EB][EA] | BFF F2 F | EAA GAB |[M:5/8] [CEA]-[CEA]- [CEA]3 |[M:1/8] E |[M:3/4] B6 | c6 | %12
 [=DB][Dc] [DB][DA] [DG][DF] | E6 | [Ec][Ec] [Ec][Ec] [EB][EA] | BF F F2 F | EA AG AB | %17
[M:5/8] [CEA]-[CEA]- [CEA]3 |] %18
V:2
 z3 z2 [A,,A,] | [A,,A,][A,,A,][A,,A,] [A,,A,][B,,G,][C,A,] | [E,G,E]3- [E,G,E]2 [E,A,E] | %3
 [E,B,E][E,B,E][E,B,E] [E,B,E][F,A,E][K:treble][G,B,E] | [A,E]3- [A,E]2 [A,E] | %5
 [A,CA][K:bass][A,E][A,E] [A,,A,][B,,G,][C,A,] | [D,F,D][D,A,D][D,A,D] [D,A,D]2 [D,A,D] | %7
 [E,A,C][E,CE][E,CE] [E,B,E][E,CE][E,DE] |[M:5/8] A,,-A,,- A,,3 |[M:1/8] z | %10
[M:3/4] z2 [E,G,] .[E,G,]3 | z2 [A,,A,] .[A,,A,]3 | [B,,F,][B,,F,] [B,,F,][B,,B,] [B,,B,][B,,A,] | %13
 E,-[E,-G,] [E,-A,] [E,B,]2 [E,G,D] | [A,,A,][A,,A,] [A,,A,][A,,A,] [B,,G,][C,A,] | %15
 [D,F,D][D,A,D] [D,A,D] [D,A,D]2 [D,A,D] | [E,A,C][E,CE] [E,CE][E,B,E] [E,CE][E,DE] | %17
[M:5/8] A,,-A,,- A,,3 |] %18
V:3
 x6 | x6 | x6 | x6 | x6 | x6 | x6 | x6 |[M:5/8] x5 |[M:1/8] x |[M:3/4] z2 D D2 E | z2 E .E3 | x6 | %13
 z B, C D2 E | x6 | x6 | x6 |[M:5/8] x5 |] %18
V:4
 x6 | x6 | x6 | x5[K:treble] x | x6 | x[K:bass] x5 | x6 | x6 |[M:5/8] x5 |[M:1/8] x |[M:3/4] x6 | %11
 x6 | x6 | .G,2 z2 z2 | x6 | x6 | x6 |[M:5/8] x5 |] %18

